Android/app/src/main/assets/www/icons/weapons/melee/doppelkunchomer.svg

<svg width="512" height="512" viewBox="0 0 512 512" fill="none" xmlns="http://www.w3.org/2000/svg">
<g clip-path="url(#clip0_268_10731)">
<path d="M359.787 134.607C312.221 234.04 234.435 304.087 153.286 370.686C158.136 377.454 163.374 384.223 168.553 391.11C245.312 338.374 281.754 314.197 368.384 219.896C458.986 121.269 488.621 41.1513 495.928 16C459.461 59.6509 411.124 101.611 359.787 134.607ZM361.784 138.092C369.857 134.075 377.947 130.081 385.928 125.894C409.917 113.539 432.07 97.5953 450.31 77.6442L453.974 73.7149C443.808 104.647 425.898 132.327 406.173 157.96C387.633 182.317 366.77 204.754 346.024 227.102C325.337 249.554 304.18 271.772 280.496 291.14C256.927 310.588 232.204 328.502 207.613 346.591C231.708 327.867 256.046 309.417 279.352 289.764C314.131 260.108 344.146 225.214 374.802 191.416C384.676 180.066 394.773 168.11 403.946 156.242C421.465 133.625 437.531 109.588 448.16 83.0019C436.618 94.5237 423.896 104.916 410.026 113.512C394.621 123.043 378.206 130.62 361.805 138.095L361.784 138.092Z" fill="white"/>
<path d="M139.799 330.441C142.555 333.74 142.101 338.648 138.802 341.404C136.749 343.112 134.077 343.582 131.681 342.908C132.572 349.261 136.55 355.015 140.496 360.189C143.418 364.098 146.5 367.978 149.65 371.825C152.324 375.187 164.805 391.783 167.284 395.274C170.105 399.368 172.977 403.406 175.922 407.297C179.809 412.515 184.23 417.955 190.078 420.562C190.095 418.074 191.288 415.637 193.499 414.139C197.063 411.734 201.903 412.66 204.308 416.224C206.713 419.788 205.787 424.628 202.223 427.033C200.267 428.357 197.935 428.645 195.809 428.061C193.54 428.117 191.134 427.965 188.747 427.376C180.535 425.355 174.349 419.226 168.769 413.318C165.79 410.112 162.814 406.666 159.881 403.206C155.167 406.495 147.076 403.392 141.65 396.177C136.225 388.962 135.51 380.332 139.958 376.712C137.447 372.934 134.962 369.118 132.709 365.367C128.582 358.367 124.399 350.731 124.749 342.272C124.845 339.816 125.376 337.473 126.05 335.298C126.088 333.105 126.991 330.941 128.818 329.42C132.118 326.664 137.025 327.118 139.781 330.417L139.799 330.441Z" fill="#878787"/>
<path d="M113.389 447.96L113.26 448.057C111.632 449.281 109.41 449.228 107.917 447.949C102.896 443.638 97.8545 438.519 93.3712 432.557C88.888 426.595 85.3392 420.242 82.6027 414.214C81.7885 412.424 82.3544 410.275 83.9825 409.051L84.1113 408.954C86.2898 407.316 89.336 408.05 90.4734 410.441C93.1125 415.974 96.4055 421.694 100.519 427.164C104.632 432.633 109.167 437.346 113.738 441.426C115.707 443.191 115.559 446.31 113.38 447.948L113.389 447.96Z" fill="#878787"/>
<path d="M102.858 425.422C99.4233 420.855 96.3451 415.762 93.6357 410.281C110.247 400.063 135.024 389.828 135.024 389.828C135.024 389.828 136.037 393.614 139.314 397.971C142.59 402.328 145.946 404.352 145.946 404.352C145.946 404.352 129.214 425.333 114.787 438.456C110.294 434.335 106.267 429.955 102.867 425.434L102.858 425.422Z" fill="#878787"/>
<path d="M64.9999 474.026L64.9061 474.096C63.6646 475.03 62.0409 475.114 61.017 474.289C57.5783 471.52 54.1536 468.21 51.1853 464.263C48.217 460.316 45.9518 456.06 44.2583 451.979C43.7497 450.766 44.2812 449.23 45.5227 448.296L45.6164 448.226C47.2796 446.975 49.4695 447.327 50.1838 448.935C51.8212 452.673 53.9364 456.51 56.658 460.129C59.3797 463.748 62.4406 466.819 65.5655 469.438C66.9123 470.57 66.6425 472.772 64.9793 474.023L64.9999 474.026Z" fill="#878787"/>
<path d="M59.021 458.37C57.0128 455.7 55.227 452.715 53.6636 449.49C58.752 442.822 70.5243 428.046 81.6209 418.858C84.3773 424.45 87.5143 429.645 91.0287 434.318C94.5431 438.992 98.6286 443.401 103.215 447.598C91.2994 455.697 73.8371 462.906 66.0299 465.935C63.386 463.541 61.0234 461.008 59.0328 458.361L59.021 458.37Z" fill="#878787"/>
<path d="M28.2576 453.817C32.4933 451.915 37.6951 451.395 41.5305 452.692C41.5895 452.941 41.6484 453.19 41.7513 453.424C43.6771 458.082 46.0595 462.323 48.8516 466.036C51.6437 469.749 55.01 473.177 58.9386 476.328C59.1557 476.495 59.3757 476.641 59.6103 476.758C59.7916 480.949 57.6907 486.032 54.4859 489.597C53.3298 490.888 51.4076 491.233 49.8532 490.459C42.2101 486.635 36.8788 489.03 33.5771 490.175C32.3554 490.598 33.5771 490.175 32.3554 490.598C31.2478 488.516 25.6597 489.546 22.7443 485.669C19.8288 481.792 22.3693 476.709 20.676 475.067L21.4221 474.011C23.3735 471.242 27.61 465.342 26.0243 458.503C25.5822 456.599 26.4971 454.646 28.2869 453.831L28.2576 453.817Z" fill="#878787"/>
</g>
<defs>
<clipPath id="clip0_268_10731">
<rect width="512" height="512" fill="white"/>
</clipPath>
</defs>
</svg>

<svg xmlns="http://www.w3.org/2000/svg" width="512" height="512" fill="none" viewBox="0 0 512 512">
  <g clip-path="url(#a)">
    <path fill="#fff" d="M359.787 134.607c-47.565 99.433-125.352 169.48-206.501 236.079 4.851 6.768 10.088 13.537 15.267 20.424 76.759-52.736 113.201-76.913 199.831-171.214C458.986 121.269 488.621 41.151 495.928 16c-36.467 43.65-84.804 85.611-136.141 118.607Zm1.997 3.485c8.073-4.017 16.163-8.011 24.145-12.198 23.988-12.355 46.141-28.299 64.381-48.25l3.665-3.93c-10.166 30.933-28.077 58.613-47.802 84.246-18.539 24.357-39.403 46.794-60.149 69.142-20.687 22.452-41.844 44.669-65.527 64.038-23.57 19.448-48.293 37.362-72.884 55.451 24.095-18.724 48.433-37.174 71.739-56.827 34.779-29.656 64.794-64.55 95.45-98.348 9.874-11.35 19.971-23.306 29.144-35.174 17.519-22.617 33.585-46.654 44.214-73.24-11.542 11.522-24.264 21.914-38.134 30.51-15.405 9.531-31.82 17.108-48.221 24.583l-.021-.003Z"/>
    <path fill="#878787" d="M139.799 330.441c2.756 3.299 2.302 8.207-.998 10.963a7.799 7.799 0 0 1-7.12 1.504c.89 6.353 4.869 12.107 8.815 17.281 2.922 3.909 6.004 7.789 9.154 11.636 2.674 3.362 15.155 19.958 17.633 23.449 2.822 4.094 5.694 8.132 8.639 12.023 3.887 5.218 8.308 10.658 14.156 13.265a7.798 7.798 0 0 1 3.421-6.423c3.564-2.405 8.404-1.479 10.809 2.085 2.405 3.564 1.479 8.404-2.085 10.809-1.956 1.324-4.289 1.612-6.414 1.028-2.269.056-4.675-.096-7.062-.685-8.212-2.021-14.398-8.15-19.978-14.058-2.979-3.206-5.955-6.652-8.888-10.112-4.714 3.289-12.805.186-18.231-7.029-5.425-7.215-6.14-15.845-1.692-19.465-2.511-3.778-4.996-7.594-7.249-11.345-4.127-7-8.31-14.636-7.96-23.095.096-2.456.626-4.799 1.301-6.974.038-2.193.941-4.357 2.768-5.878 3.299-2.756 8.206-2.302 10.963.997l.018.024Zm-26.41 117.519-.129.097c-1.628 1.224-3.85 1.171-5.343-.108-5.021-4.311-10.063-9.43-14.546-15.392-4.483-5.962-8.032-12.315-10.768-18.343-.815-1.79-.249-3.939 1.38-5.163l.128-.097c2.179-1.638 5.225-.904 6.362 1.487 2.64 5.533 5.932 11.253 10.046 16.723 4.113 5.469 8.647 10.182 13.219 14.262 1.969 1.765 1.821 4.884-.358 6.522l.009.012Zm-10.531-22.538c-3.435-4.567-6.513-9.66-9.223-15.141 16.612-10.218 41.389-20.453 41.389-20.453s1.013 3.786 4.29 8.143c3.276 4.357 6.632 6.381 6.632 6.381s-16.733 20.981-31.16 34.104c-4.492-4.121-8.519-8.501-11.919-13.022l-.009-.012ZM65 474.026l-.094.07c-1.242.934-2.865 1.018-3.89.193-3.438-2.769-6.862-6.079-9.83-10.026-2.969-3.947-5.234-8.203-6.928-12.284-.508-1.213.023-2.749 1.265-3.683l.093-.07c1.663-1.251 3.853-.899 4.568.709 1.637 3.738 3.752 7.575 6.474 11.194 2.722 3.619 5.783 6.69 8.907 9.309 1.347 1.132 1.078 3.334-.586 4.585l.02.003Zm-5.979-15.656c-2.008-2.67-3.794-5.655-5.358-8.88 5.089-6.668 16.861-21.444 27.958-30.632 2.756 5.592 5.893 10.787 9.408 15.46 3.514 4.674 7.6 9.083 12.186 13.28-11.916 8.099-29.378 15.308-37.185 18.337-2.644-2.394-5.007-4.927-6.997-7.574l-.012.009Zm-30.763-4.553c4.235-1.902 9.437-2.422 13.273-1.125.059.249.117.498.22.732 1.926 4.658 4.309 8.899 7.1 12.612 2.793 3.713 6.159 7.141 10.088 10.292.217.167.437.313.671.43.182 4.191-1.92 9.274-5.124 12.839-1.156 1.291-3.078 1.636-4.633.862-7.643-3.824-12.974-1.429-16.276-.284l-1.222.423c-1.107-2.082-6.695-1.052-9.61-4.929-2.916-3.877-.376-8.96-2.069-10.602l.746-1.056c1.951-2.769 6.188-8.669 4.602-15.508-.442-1.904.473-3.857 2.263-4.672l-.03-.014Z"/>
  </g>
  <defs>
    <clipPath id="a">
      <path fill="#fff" d="M0 0h512v512H0z"/>
    </clipPath>
  </defs>
</svg>
